!!!!SEGMENT: pl-wn--sd-xvi-qu-273--097_gomolka-mikolaj--melodiae-na-psalterz-polski-xcvii-pan-nasz-bog-nasz-panuje.krn
!!!cenid: 15xx:302
!!!COM: Gomółka, Mikołaj
!!!COM-rismID: pe30013343
!!!CDT: ~1535->1591/04/30
!!!CNT: Polish
!!!GTL: Melodiae na psalterz polski
!!!OTL: XCVII. Pan nasz, Bóg nasz panuje!
!!!PDT: 1580
!!!AGN: Sacred
!!!SMS-siglum: PL-Wn
!!!SMS-shelfmark: SD XVI.Qu.273
!!!SMS-shelfwork: 097 G
!!!NIFC-rismSourceID: 990022100
!!!NIFC-rismChildID: 990022100
!!!NIFC-islandoraID: none
!!!URL-pdf-islandora:
!!!URL-scan: https://polona.pl/item/melodiae-na-psalterz-polski,Nzk3MTM4ODQ/228 @EN{Scan on Polona} @PL{Skany w portalu Polona}
!!!IIIF: https://polona.pl/iiif/item/Nzk3MTM4ODQ/manifest.json
!!!ONB-nifc: Melodiae na psalterz polski
!!!AIN: 1 alto 1 bass 1 soprn 1 tenor
!!!key:
**kern	**text	**kern	**text	**kern	**text	**kern	**text
*part4	*part4	*part3	*part3	*part2	*part2	*part1	*part1
*staff4	*staff4	*staff3	*staff3	*staff2	*staff2	*staff1	*staff1
*Ibass	*	*Itenor	*	*Ialto	*	*Isoprn	*
*I"BASSVS.	*	*I"TENOR.	*	*I"ALTVS.	*	*I"CANTVS.	*
*clefF3	*	*clefC3	*	*clefC1	*	*clefG2	*
*k[b-]	*	*k[b-]	*	*k[b-]	*	*k[b-]	*
*F:	*	*F:	*	*F:	*	*F:	*
*M2/1	*	*M2/1	*	*M2/1	*	*M2/1	*
*met(C|)	*	*met(C|)	*	*met(C|)	*	*met(C|)	*
*MM300	*	*MM300	*	*MM300	*	*MM300	*
=1-	=1-	=1-	=1-	=1-	=1-	=1-	=1-
*xywh-104r:737,5316,4804,1284	*	*xywh-104r:737,4040,4794,1275	*	*xywh-104r:690,2783,4822,1275	*	*xywh-104r:709,1163,4841,1647	*
2F/	Pan	2.a	Pan	2.cc	Pan	2.ff	Pan
2F/	náʃᴣ/	.	.	.	.	.	.
.	.	4g	náʃᴣ/	4cc	náʃᴣ/	4ee	náʃᴣ/
2B-	bóg	2f	bóg	2b-	bóg	2dd	bóg
2F/	náʃᴣ	2f	náʃᴣ	2a	náʃᴣ	2cc	náʃᴣ
=2-	=2-	=2-	=2-	=2-	=2-	=2-	=2-
2B-	pá-	2f	pá-	2dd	pá-	2b-/	pá-
2c	-nu-	2e	-nu-	4cc	-nu-	4a	-nu
.	.	.	.	4b-	.	4g	.
1F	-ie:	2f	-ie:	4a	ie:	1a	ie:
.	.	.	.	4b-	.	.	.
.	.	2.f	Niech	2cc	.	.	.
=3-	=3-	=3-	=3-	=3-	=3-	=3-	=3-
2.D	Niech	.	.	2f	Niech	2.ff	Niech
.	.	4e	.	.	.	.	.
.	.	4d	ʃye	2f	ʃye	.	.
4D	ʃye	4c	.	.	.	4ee	ʃye
2G	ӡie-	2B-X	ӡie-	2g/	ӡie-	2dd	ӡie-
2E	-miá	2c	-miá	2g/	-miá	2cc	-miá
=4-	=4-	=4-	=4-	=4-	=4-	=4-	=4-
2F/	rá-	2d	rá-	2f	rá-	2cc	rá-
2G	-du-	2d	-du-	2d	-du-	2b-/	-du-
1C	-ie/	2e	-ie/	4c	-ie/	1cc	-ie/
.	.	.	.	4d	.	.	.
.	.	2.e	.	4e	.	.	.
.	.	.	.	4f	.	.	.
=5-	=5-	=5-	=5-	=5-	=5-	=5-	=5-
4c	Y	.	.	2g/	Y	2.cc	Y
4B-	.	4d	Y	.	.	.	.
4A	wyʃ-	2c/	wyʃ-	4f	.	.	.
4G	.	.	.	4g/	wyʃ-	4b-/	wyʃ-
4F/	py	2.d	-py	4a	-py	2a	py
4E	.	.	.	4g	.	.	.
4D	nie-	.	.	4f	nie-	2a	nie-
4C	.	4e	nie-	4e	.	.	.
!!LO:PB:g=original
=6-	=6-	=6-	=6-	=6-	=6-	=6-	=6-
*xywh-104v:1367,5288,3472,1263	*	*xywh-104v:1377,3959,3163,1300	*	*xywh-104v:1452,2723,3229,1319	*	*xywh-104v:1480,1188,4052,1525	*
4BB-	ӡli-	2f	-ӡli-	2.f	ӡli-	2dd	-ӡli-
4C	.	.	.	.	.	.	.
4D	cӡo	2f	-cӡo-	.	.	2dd	-cӡo-
4E	.	.	.	4g/	-cӡo-	.	.
1F	né/	1c	-né/	2.a	-né/	1cc	-né/
.	.	.	.	4g/	.	.	.
=7-	=7-	=7-	=7-	=7-	=7-	=7-	=7-
4B-	Ӡ_wód	2d	Ӡ_wód	2f	Ӡ_wód	2.b-/	Ӡ_wód
4A	.	.	.	.	.	.	.
4G	mor	2B-	mor-	1g	mor_ʃťich-	.	.
4F	.	.	.	.	.	4a	mor-
2E	ʃťich	2c/	-ʃťich	.	.	2g	-ʃťich
2F/	wy-	2A	wy-	2c	wy-	2f	wy-
=8-	=8-	=8-	=8-	=8-	=8-	=8-	=8-
2BB-	-nu-	2B-	-nu-	2d	-nu-	2f	-nu-
2C	-rӡo-	2G	-rӡo-	2c	-rӡo-	2e	-rӡo-
!	!	!ogonek po lewej stronie	!	!ogonek po lewej stronie	!	!	!
1Fll	-né.	1F/ll	-né.	1c/ll	-né.	1f/ll	-né.
==-	==-	==-	==-	==-	==-	==-	==-
*-	*-	*-	*-	*-	*-	*-	*-
!!!system-decoration: s1,s2,s3,s4
!!!RDF**kern: l = terminal long
!!!ENC: Anna Matuszewska
!!!END: 2020-02-17
!!!ENC-iiif: Craig Stuart Sapp
!!!END: 2021-12-07
!!!YEC: Copyright 2022 Narodowy Instytut Fryderyka Chopina (https://polishscores.org)
!!!YEM: License CC-BY-4.0 (https://creativecommons.org/licenses/by/4.0)
